icons/1_Primary/Real-Debrid.svg

<svg xmlns="http://www.w3.org/2000/svg" width="1024" height="1024" fill="none">
   <g clip-path="url(#a)">
      <path fill="#98DC9A" d="M512 1024c282.77 0 512-229.23 512-512S794.77 0 512 0 0 229.23 0 512s229.23 512 512 512Z"/>
      <path fill="#fff" d="M513 222.16c-.22.22-7 .65-15 1.08-8 .43-15.95.86-17.78 1.08-1.83.22-6.9 1.08-11.32 1.72-21 3-48 10.67-68.75 19.61a292.388 292.388 0 0 0-152.04 150.44 295.752 295.752 0 0 0-23.49 90.31c-1.4 16.38-.75 51.19 1.19 61.43.22 1.08.75 4.74 1.08 8 .54 4.85 3.34 18 6.57 30.71.32 1.19.86 3.77 1.19 5.6.33 1.83 1 3.56 1.4 3.56.4 0 .86.65.86 1.51 0 3.34 6 19.94 7.11 19.29.65-.32.75-.11.43.43-1 1.62 1.83 8.08 3 7.11.43-.54.54-.22.11.54-.43.76.54 4.63 2.69 9.16 3.66 8 16.27 31 18.21 33.41.65.75 3.13 4.42 5.5 8.19 4.1 6.47 18.1 24.35 24.25 31.14 41.92 45.37 92.14 75.11 149.15 88.47 7.44 1.72 15.84 3.45 18.64 3.88 2.533.261 5.05.658 7.54 1.19 14 2.69 70.91 2.69 81.58-.11a42.248 42.248 0 0 1 5.39-1.08c17.89-2.8 46.12-10.56 59.27-16.27 2-1 4.74-2 5.93-2.48 1.19-.48 7-3.13 12.93-5.93a289.489 289.489 0 0 0 116.5-101.43c11.53-17.13 18.64-31 26.94-52.59C785.64 611 792 590.28 793 584.9c.22-1.51.86-4.42 1.4-6.47.54-2.05 1.29-5.5 1.62-7.54.33-2.04.75-5 1.08-6.47 3.23-17 4.1-53.56 1.72-71.66-1.29-10-5.17-28-6.47-30.5-.43-.75-2.91 6.14-5.6 15.84-2.59 9.38-4.85 17-5 16.92a56.936 56.936 0 0 1-.86-6.57 218.398 218.398 0 0 0-4.31-29.1c-2.8-14.12-8.41-32.54-13.15-43.64-3.66-8.41-11.32-22.63-12.18-22.63-.43 0-.75 8.41-.75 18.54-.32 56.58-7.33 106-20.69 145.37-7 20.8-21.34 51.62-31.79 68.65a221 221 0 0 1-107.33 89.23c-9.38 3.56-30.39 9.48-38.26 10.67-31.68 5-56.79 4.42-85.35-1.72C384.22 706 317.4 637.7 301.45 554.18c-2.48-12.82-2.69-14-3.56-25.76-1.08-15.52-.54-37.39 1.29-45.91.22-1.4.75-4.42 1.08-6.57.33-2.15 1.83-8.73 3.34-14.55 1.51-5.82 2.8-11.42 3-12.29 2.26-9.7 15.63-38.58 23.49-51.19 16.38-25.86 41.49-51.08 67.78-68 24.25-15.52 58-27.91 88.26-32.33 7.76-1.08 40.73-1.4 49-.32 21.12 2.48 24 2.91 37.72 5.39 49.36 9.05 98.6 30.39 156.58 68.11 7.76 5.17 14.22 8.73 14.22 8 0-2.16-10.45-19.72-17-28.67a237.942 237.942 0 0 0-43.75-45.26c-5.17-4.2-9.27-7.65-8.84-7.65 1.583.37 3.133.875 4.63 1.51 9.7 3.66 28.56 9.38 29.53 9.05.65-.22-3.34-5-8.94-10.45-26.94-27-62-48-101.84-60.78-12.07-4-30.5-8.62-38.58-9.81-2.37-.43-8.19-1.29-12.93-2s-13.79-1.51-19.94-1.72c-6.15-.21-11.53-.43-12-.75a.996.996 0 0 0-.99-.07Z"/>
   </g>
   <defs>
      <clipPath id="a">
         <path fill="#fff" d="M0 0h1024v1024H0z"/>
      </clipPath>
   </defs>
</svg>

<svg width="1024" height="1024" viewBox="0 0 1024 1024" fill="none" xmlns="http://www.w3.org/2000/svg">
<g clip-path="url(#clip0_2_3297)">
<path d="M512 1024C794.77 1024 1024 794.77 1024 512C1024 229.23 794.77 0 512 0C229.23 0 0 229.23 0 512C0 794.77 229.23 1024 512 1024Z" fill="#98DC9A"/>
<path d="M513 222.16C512.78 222.38 506 222.81 498 223.24C490 223.67 482.05 224.1 480.22 224.32C478.39 224.54 473.32 225.4 468.9 226.04C447.9 229.04 420.9 236.71 400.15 245.65C332.289 274.795 277.971 328.541 248.11 396.09C235.55 424.761 227.622 455.243 224.62 486.4C223.22 502.78 223.87 537.59 225.81 547.83C226.03 548.91 226.56 552.57 226.89 555.83C227.43 560.68 230.23 573.83 233.46 586.54C233.78 587.73 234.32 590.31 234.65 592.14C234.98 593.97 235.65 595.7 236.05 595.7C236.45 595.7 236.91 596.35 236.91 597.21C236.91 600.55 242.91 617.15 244.02 616.5C244.67 616.18 244.77 616.39 244.45 616.93C243.45 618.55 246.28 625.01 247.45 624.04C247.88 623.5 247.99 623.82 247.56 624.58C247.13 625.34 248.1 629.21 250.25 633.74C253.91 641.74 266.52 664.74 268.46 667.15C269.11 667.9 271.59 671.57 273.96 675.34C278.06 681.81 292.06 699.69 298.21 706.48C340.13 751.85 390.35 781.59 447.36 794.95C454.8 796.67 463.2 798.4 466 798.83C468.533 799.091 471.05 799.488 473.54 800.02C487.54 802.71 544.45 802.71 555.12 799.91C556.891 799.433 558.692 799.073 560.51 798.83C578.4 796.03 606.63 788.27 619.78 782.56C621.78 781.56 624.52 780.56 625.71 780.08C626.9 779.6 632.71 776.95 638.64 774.15C685.943 751.516 726.21 716.458 755.14 672.72C766.67 655.59 773.78 641.72 782.08 620.13C785.64 611 792 590.28 793 584.9C793.22 583.39 793.86 580.48 794.4 578.43C794.94 576.38 795.69 572.93 796.02 570.89C796.35 568.85 796.77 565.89 797.1 564.42C800.33 547.42 801.2 510.86 798.82 492.76C797.53 482.76 793.65 464.76 792.35 462.26C791.92 461.51 789.44 468.4 786.75 478.1C784.16 487.48 781.9 495.1 781.75 495.02C781.336 492.849 781.049 490.655 780.89 488.45C780.109 478.664 778.669 468.942 776.58 459.35C773.78 445.23 768.17 426.81 763.43 415.71C759.77 407.3 752.11 393.08 751.25 393.08C750.82 393.08 750.5 401.49 750.5 411.62C750.18 468.2 743.17 517.62 729.81 556.99C722.81 577.79 708.47 608.61 698.02 625.64C672.822 666.197 635.166 697.502 590.69 714.87C581.31 718.43 560.3 724.35 552.43 725.54C520.75 730.54 495.64 729.96 467.08 723.82C384.22 706 317.4 637.7 301.45 554.18C298.97 541.36 298.76 540.18 297.89 528.42C296.81 512.9 297.35 491.03 299.18 482.51C299.4 481.11 299.93 478.09 300.26 475.94C300.59 473.79 302.09 467.21 303.6 461.39C305.11 455.57 306.4 449.97 306.6 449.1C308.86 439.4 322.23 410.52 330.09 397.91C346.47 372.05 371.58 346.83 397.87 329.91C422.12 314.39 455.87 302 486.13 297.58C493.89 296.5 526.86 296.18 535.13 297.26C556.25 299.74 559.13 300.17 572.85 302.65C622.21 311.7 671.45 333.04 729.43 370.76C737.19 375.93 743.65 379.49 743.65 378.76C743.65 376.6 733.2 359.04 726.65 350.09C714.135 333.132 699.423 317.912 682.9 304.83C677.73 300.63 673.63 297.18 674.06 297.18C675.643 297.55 677.193 298.055 678.69 298.69C688.39 302.35 707.25 308.07 708.22 307.74C708.87 307.52 704.88 302.74 699.28 297.29C672.34 270.29 637.28 249.29 597.44 236.51C585.37 232.51 566.94 227.89 558.86 226.7C556.49 226.27 550.67 225.41 545.93 224.7C541.19 223.99 532.14 223.19 525.99 222.98C519.84 222.77 514.46 222.55 513.99 222.23C513.845 222.133 513.678 222.076 513.504 222.064C513.33 222.051 513.157 222.085 513 222.16Z" fill="white"/>
</g>
<defs>
<clipPath id="clip0_2_3297">
<rect width="1024" height="1024" fill="white"/>
</clipPath>
</defs>
</svg>
